img/svg/advantages-image-2.svg

<svg width="77" height="77" viewBox="0 0 77 77" fill="none" xmlns="http://www.w3.org/2000/svg">
<g clip-path="url(#clip0)">
<path d="M75.5911 68.2772H71.916V52.8541C72.6505 52.2084 73.1153 51.263 73.1153 50.2105C73.1153 48.2691 71.5359 46.6898 69.5947 46.6898H62.2537L61.1201 28.5531C61.0831 27.9617 60.5927 27.501 60.0002 27.501H55.203C54.6105 27.501 54.1201 27.9617 54.0831 28.5531L52.9495 46.6898H50.2606L49.127 28.5531C49.09 27.9617 48.5996 27.501 48.0071 27.501H43.21C42.6175 27.501 42.1271 27.9617 42.0902 28.5531L40.9566 46.6898H38.2676L37.134 28.5531C37.097 27.9617 36.6066 27.501 36.0142 27.501H31.217C30.6246 27.501 30.1341 27.9617 30.0972 28.5531L28.9636 46.6898H25.8382L25.1431 15.4059C25.1297 14.7961 24.6313 14.3088 24.0213 14.3088H16.8255C16.2155 14.3088 15.7172 14.7961 15.7037 15.4059L14.902 51.4871H6.03151C4.09016 51.4871 2.51087 53.0666 2.51087 55.0078C2.51087 56.0603 2.97571 57.0057 3.71015 57.6514V68.2772H1.23439C0.614698 68.2772 0.112305 68.7796 0.112305 69.3993C0.112305 70.019 0.614698 70.5214 1.23439 70.5214H75.5911C76.2107 70.5214 76.7131 70.019 76.7131 69.3993C76.7131 68.7796 76.2107 68.2772 75.5911 68.2772ZM14.795 56.2844H10.8292C10.2096 56.2844 9.70716 56.7868 9.70716 57.4065C9.70716 58.0262 10.2096 58.5286 10.8292 58.5286H14.7452L14.5285 68.2772H5.95432V58.5265C5.98005 58.5271 6.00563 58.5284 6.03151 58.5284C6.6512 58.5284 7.1536 58.026 7.1536 57.4063C7.1536 56.7866 6.6512 56.2843 6.03151 56.2843C5.32759 56.2843 4.75503 55.7115 4.75503 55.0078C4.75503 54.3039 5.32774 53.7313 6.03151 53.7313H14.8517L14.795 56.2844ZM56.257 29.7452H58.9459L60.005 46.6898H55.198L56.257 29.7452ZM44.264 29.7452H46.953L48.0121 46.6898H43.2051L44.264 29.7452ZM32.271 29.7452H34.96L36.0189 46.6898H31.2119L32.271 29.7452ZM19.3013 68.2772H16.7734L17.9226 16.5528H22.9236L23.5935 46.6898H21.6226C19.6813 46.6898 18.1018 48.2693 18.1018 50.2105C18.1018 51.263 18.5667 52.2084 19.3013 52.8541V68.2772ZM69.5947 51.487H67.1961C66.5764 51.487 66.074 51.9894 66.074 52.6091C66.074 53.2287 66.5764 53.7311 67.1961 53.7311H69.5947C69.6205 53.7311 69.6461 53.7296 69.6719 53.7292V68.2772H21.5453V53.7292C21.571 53.7298 21.5966 53.7311 21.6225 53.7311H62.3997C63.0194 53.7311 63.5218 53.2287 63.5218 52.6091C63.5218 51.9894 63.0194 51.487 62.3997 51.487H21.6225C20.9186 51.487 20.3458 50.9143 20.3458 50.2105C20.3458 49.5067 20.9186 48.934 21.6225 48.934H69.5945C70.2984 48.934 70.8711 49.5066 70.8711 50.2105C70.8711 50.9144 70.2984 51.487 69.5947 51.487Z" fill="#2D486B"/>
<path d="M28.8182 62.3637C28.1985 62.3637 27.6961 62.8661 27.6961 63.4858V65.8844C27.6961 66.5041 28.1985 67.0065 28.8182 67.0065C29.4378 67.0065 29.9402 66.5041 29.9402 65.8844V63.4858C29.9402 62.8661 29.4378 62.3637 28.8182 62.3637Z" fill="#2D486B"/>
<path d="M33.6157 62.3637C32.996 62.3637 32.4937 62.8661 32.4937 63.4858V65.8844C32.4937 66.5041 32.996 67.0065 33.6157 67.0065C34.2354 67.0065 34.7378 66.5041 34.7378 65.8844V63.4858C34.7378 62.8661 34.2354 62.3637 33.6157 62.3637Z" fill="#2D486B"/>
<path d="M38.4127 62.3637C37.793 62.3637 37.2906 62.8661 37.2906 63.4858V65.8844C37.2906 66.5041 37.793 67.0065 38.4127 67.0065C39.0324 67.0065 39.5348 66.5041 39.5348 65.8844V63.4858C39.5348 62.8661 39.0324 62.3637 38.4127 62.3637Z" fill="#2D486B"/>
<path d="M43.2098 62.3637C42.5901 62.3637 42.0877 62.8661 42.0877 63.4858V65.8844C42.0877 66.5041 42.5901 67.0065 43.2098 67.0065C43.8295 67.0065 44.3318 66.5041 44.3318 65.8844V63.4858C44.3318 62.8661 43.8296 62.3637 43.2098 62.3637Z" fill="#2D486B"/>
<path d="M48.0072 62.3637C47.3875 62.3637 46.8851 62.8661 46.8851 63.4858V65.8844C46.8851 66.5041 47.3875 67.0065 48.0072 67.0065C48.6269 67.0065 49.1293 66.5041 49.1293 65.8844V63.4858C49.1293 62.8661 48.6269 62.3637 48.0072 62.3637Z" fill="#2D486B"/>
<path d="M52.8041 62.3637C52.1844 62.3637 51.682 62.8661 51.682 63.4858V65.8844C51.682 66.5041 52.1844 67.0065 52.8041 67.0065C53.4238 67.0065 53.9262 66.5041 53.9262 65.8844V63.4858C53.9262 62.8661 53.4238 62.3637 52.8041 62.3637Z" fill="#2D486B"/>
<path d="M57.6016 62.3637C56.9819 62.3637 56.4795 62.8661 56.4795 63.4858V65.8844C56.4795 66.5041 56.9819 67.0065 57.6016 67.0065C58.2213 67.0065 58.7237 66.5041 58.7237 65.8844V63.4858C58.7237 62.8661 58.2213 62.3637 57.6016 62.3637Z" fill="#2D486B"/>
<path d="M62.3987 62.3637C61.779 62.3637 61.2766 62.8661 61.2766 63.4858V65.8844C61.2766 66.5041 61.779 67.0065 62.3987 67.0065C63.0184 67.0065 63.5208 66.5041 63.5208 65.8844V63.4858C63.5208 62.8661 63.0184 62.3637 62.3987 62.3637Z" fill="#2D486B"/>
</g>
<defs>
<clipPath id="clip0">
<rect x="0.112305" width="76.6008" height="76.6008" fill="white"/>
</clipPath>
</defs>
</svg>

<svg width="77" height="77" viewBox="0 0 77 77" fill="none" xmlns="http://www.w3.org/2000/svg"><g clip-path="url(#clip0)" fill="#2D486B"><path d="M75.591 68.277h-3.675V52.854a3.512 3.512 0 001.2-2.643 3.525 3.525 0 00-3.521-3.521h-7.341L61.12 28.553A1.122 1.122 0 0060 27.501h-4.797c-.593 0-1.083.46-1.12 1.052L52.95 46.69h-2.69l-1.133-18.137a1.122 1.122 0 00-1.12-1.052H43.21c-.593 0-1.083.46-1.12 1.052L40.957 46.69h-2.69l-1.133-18.137a1.122 1.122 0 00-1.12-1.052h-4.797c-.592 0-1.083.46-1.12 1.052L28.964 46.69h-3.126l-.695-31.284a1.122 1.122 0 00-1.122-1.097h-7.195c-.61 0-1.109.487-1.122 1.097l-.802 36.081h-8.87a3.525 3.525 0 00-3.521 3.52 3.51 3.51 0 001.2 2.644v10.626H1.233a1.122 1.122 0 000 2.244H75.59a1.122 1.122 0 000-2.244zM14.795 56.284h-3.966a1.122 1.122 0 000 2.245h3.916l-.216 9.748H5.954v-9.75l.078.001a1.122 1.122 0 000-2.244 1.278 1.278 0 01-1.277-1.276c0-.704.573-1.277 1.277-1.277h8.82l-.057 2.553zm41.462-26.539h2.689l1.059 16.945h-4.807l1.059-16.945zm-11.993 0h2.689l1.06 16.945h-4.808l1.059-16.945zm-11.993 0h2.689l1.059 16.945h-4.807l1.059-16.945zm-12.97 38.532h-2.528l1.15-51.724h5l.67 30.137h-1.97a3.525 3.525 0 00-3.521 3.52c0 1.053.465 1.998 1.2 2.644v15.423zm50.294-16.79h-2.399a1.122 1.122 0 000 2.244h2.399l.077-.002v14.548H21.545V53.73l.077.002H62.4a1.122 1.122 0 000-2.244H21.622a1.278 1.278 0 01-1.276-1.276c0-.704.573-1.277 1.276-1.277h47.972a1.278 1.278 0 010 2.553z"/><path d="M28.818 62.364c-.62 0-1.122.502-1.122 1.122v2.398a1.122 1.122 0 002.244 0v-2.398c0-.62-.502-1.122-1.122-1.122zm4.798 0c-.62 0-1.122.502-1.122 1.122v2.398a1.122 1.122 0 102.244 0v-2.398c0-.62-.503-1.122-1.122-1.122zm4.797 0c-.62 0-1.122.502-1.122 1.122v2.398a1.122 1.122 0 002.244 0v-2.398c0-.62-.503-1.122-1.122-1.122zm4.797 0c-.62 0-1.122.502-1.122 1.122v2.398a1.122 1.122 0 002.244 0v-2.398c0-.62-.502-1.122-1.122-1.122zm4.797 0c-.62 0-1.122.502-1.122 1.122v2.398a1.122 1.122 0 002.244 0v-2.398c0-.62-.502-1.122-1.122-1.122zm4.797 0c-.62 0-1.122.502-1.122 1.122v2.398a1.122 1.122 0 002.244 0v-2.398c0-.62-.502-1.122-1.122-1.122zm4.798 0c-.62 0-1.122.502-1.122 1.122v2.398a1.122 1.122 0 002.244 0v-2.398c0-.62-.503-1.122-1.122-1.122zm4.797 0c-.62 0-1.122.502-1.122 1.122v2.398a1.122 1.122 0 002.244 0v-2.398c0-.62-.503-1.122-1.122-1.122z"/></g><defs><clipPath id="clip0"><path fill="#fff" d="M.112 0h76.601v76.601H.112z"/></clipPath></defs></svg>
